X: 22420
T: Ladies Pantalettes, The
R: reel
M: 4/4
K: Gmajor
(3Bcd cA G3c|AF F2 dF F2|(3Bcd cA G2ge|fdcA BG G2|
(3Bcd cA BG G2|AF F2 dF F2|(3Bcd cA G2ge|fdcA BGGg||
fgaf g2fg|a3g fdde|fgaf gaag|fdcA BGG2|
fgaf g2fg|a3g fdde|f3g a3g|fdcA d2cA||

